assets/Sun behind rain cloud/Flat/sun_behind_rain_cloud_flat.svg

<svg width="32" height="32" viewBox="0 0 32 32" fill="none" xmlns="http://www.w3.org/2000/svg">
<path d="M27.9882 5.84328C24.0853 2.03932 17.8656 2.0563 13.9997 5.87007C13.4623 5.67545 12.883 5.56944 12.2804 5.56944C10.4752 5.56944 8.89299 6.51693 8.00116 7.93871C4.09183 8.18181 1 11.426 1 15.3969C1 17.1533 1.61205 18.77 2.62341 20.0489C3.99738 21.8454 6.15767 23 8.5931 23H21.3084C24.4651 23 27.2531 21.4454 28.9564 19.0672C31.9727 15.1061 31.6493 9.4153 27.9882 5.84328Z" fill="#B4ACBC"/>
<path d="M7.99651 2.96274C8.57651 1.70274 10.3565 1.67274 10.9765 2.91274C11.2065 3.38274 11.7865 3.55274 12.2365 3.30274L12.5165 3.14274C13.6165 2.52274 14.9365 3.45274 14.7265 4.69274L14.6765 5.01274C14.5865 5.52274 14.9465 6.01274 15.4665 6.06274L15.7865 6.10274C17.0365 6.24274 17.5665 7.78274 16.6665 8.66274L16.4365 8.89274C16.0665 9.25274 16.0765 9.86274 16.4565 10.2127L16.6965 10.4327C17.6265 11.2827 17.1465 12.8327 15.9065 13.0127L15.5865 13.0627C15.0665 13.1427 14.7265 13.6327 14.8265 14.1427L14.8865 14.4627C15.1365 15.7027 13.8365 16.6727 12.7265 16.0827L12.4365 15.9327C11.9765 15.6927 11.4065 15.8827 11.1865 16.3627C10.6065 17.6227 8.82652 17.6527 8.20652 16.4127C7.97652 15.9427 7.39652 15.7727 6.94652 16.0227L6.66652 16.1827C5.56652 16.8027 4.24652 15.8727 4.45652 14.6327L4.50652 14.3127C4.59652 13.8027 4.23651 13.3127 3.71651 13.2627L3.39651 13.2227C2.14651 13.0827 1.61652 11.5427 2.51652 10.6627L2.74651 10.4327C3.11651 10.0727 3.10652 9.46274 2.72652 9.11274L2.48652 8.89274C1.55652 8.04274 2.03652 6.49274 3.27652 6.31274L3.59652 6.26274C4.11652 6.18274 4.45651 5.69274 4.35651 5.18274L4.29652 4.86274C4.04652 3.62274 5.33652 2.65274 6.45652 3.24274L6.74651 3.39274C7.20651 3.63274 7.77651 3.43274 7.99651 2.96274Z" fill="#FF822D"/>
<path d="M9.57672 15.5928C12.8573 15.5928 15.5167 12.9333 15.5167 9.65277C15.5167 6.3722 12.8573 3.71277 9.57672 3.71277C6.29615 3.71277 3.63672 6.3722 3.63672 9.65277C3.63672 12.9333 6.29615 15.5928 9.57672 15.5928Z" fill="#F9C23C"/>
<path d="M7.11659 29.2827L9.4266 26.1227C9.9966 25.3427 9.8266 24.2527 9.0466 23.6827C8.2666 23.1127 7.17659 23.2827 6.60659 24.0627L4.2966 27.2227C3.7266 28.0027 3.89659 29.0927 4.67659 29.6627C5.45659 30.2327 6.54659 30.0627 7.11659 29.2827Z" fill="#3F5FFF"/>
<path d="M16.0066 26.1227L13.6965 29.2827C13.1265 30.0627 12.0366 30.2327 11.2566 29.6627C10.4766 29.0927 10.3065 28.0027 10.8765 27.2227L13.1865 24.0627C13.7565 23.2827 14.8465 23.1127 15.6265 23.6827C16.3965 24.2527 16.5666 25.3427 16.0066 26.1227Z" fill="#3F5FFF"/>
<path d="M22.5765 26.1227L20.2665 29.2827C19.6965 30.0627 18.6065 30.2327 17.8265 29.6627C17.0465 29.0927 16.8765 28.0027 17.4465 27.2227L19.7565 24.0627C20.3265 23.2827 21.4165 23.1127 22.1965 23.6827C22.9665 24.2527 23.1365 25.3427 22.5765 26.1227Z" fill="#3F5FFF"/>
<path d="M14.575 6.70971C18.0419 3.15266 23.7332 3.09254 27.2902 6.55941C30.5868 9.77578 30.8774 14.9059 28.152 18.473C26.6289 20.6072 24.134 22 21.3084 22H8.5931C6.4789 22 4.60517 20.998 3.4128 19.4349C2.53105 18.3227 2 16.9199 2 15.3969C2 11.8198 4.89575 8.9241 8.47286 8.9241C8.51597 8.9241 8.55898 8.92452 8.60189 8.92536C9.24265 7.53472 10.6488 6.56944 12.2804 6.56944C12.9903 6.56944 13.6576 6.75221 14.2377 7.07325C14.346 6.94978 14.4584 6.82855 14.575 6.70971Z" fill="#F3EEF8"/>
</svg>

<svg xmlns="http://www.w3.org/2000/svg" width="32" height="32" fill="none"><path fill="#B4ACBC" d="M27.988 5.843C24.085 2.04 17.866 2.056 14 5.87A5.044 5.044 0 0 0 8 7.94 7.47 7.47 0 0 0 1 15.397c0 1.756.612 3.373 1.623 4.652A7.492 7.492 0 0 0 8.593 23h12.715a9.388 9.388 0 0 0 7.648-3.933c3.017-3.96 2.693-9.652-.968-13.224Z"/><path fill="#FF822D" d="M7.997 2.963c.58-1.26 2.36-1.29 2.98-.05.23.47.81.64 1.26.39l.28-.16c1.1-.62 2.42.31 2.21 1.55l-.05.32c-.09.51.27 1 .79 1.05l.32.04c1.25.14 1.78 1.68.88 2.56l-.23.23c-.37.36-.36.97.02 1.32l.24.22c.93.85.45 2.4-.79 2.58l-.32.05c-.52.08-.86.57-.76 1.08l.06.32c.25 1.24-1.05 2.21-2.16 1.62l-.29-.15a.91.91 0 0 0-1.25.43c-.58 1.26-2.36 1.29-2.98.05a.911.911 0 0 0-1.26-.39l-.28.16c-1.1.62-2.42-.31-2.21-1.55l.05-.32c.09-.51-.27-1-.79-1.05l-.32-.04c-1.25-.14-1.78-1.68-.88-2.56l.23-.23c.37-.36.36-.97-.02-1.32l-.24-.22c-.93-.85-.45-2.4.79-2.58l.32-.05c.52-.08.86-.57.76-1.08l-.06-.32c-.25-1.24 1.04-2.21 2.16-1.62l.29.15c.46.24 1.03.04 1.25-.43Z"/><path fill="#F9C23C" d="M9.577 15.593a5.94 5.94 0 1 0 0-11.88 5.94 5.94 0 0 0 0 11.88Z"/><path fill="#3F5FFF" d="m7.117 29.283 2.31-3.16c.57-.78.4-1.87-.38-2.44-.78-.57-1.87-.4-2.44.38l-2.31 3.16c-.57.78-.4 1.87.38 2.44.78.57 1.87.4 2.44-.38ZM16.007 26.123l-2.31 3.16c-.57.78-1.66.95-2.44.38s-.95-1.66-.38-2.44l2.31-3.16c.57-.78 1.66-.95 2.44-.38.77.57.94 1.66.38 2.44ZM22.576 26.123l-2.31 3.16c-.57.78-1.66.95-2.44.38s-.95-1.66-.38-2.44l2.31-3.16c.57-.78 1.66-.95 2.44-.38.77.57.94 1.66.38 2.44Z"/><path fill="#F3EEF8" d="M14.575 6.71c3.467-3.557 9.158-3.617 12.715-.15 3.297 3.216 3.587 8.346.862 11.913A8.388 8.388 0 0 1 21.308 22H8.593a6.492 6.492 0 0 1-5.18-2.565A6.482 6.482 0 0 1 2 15.397a6.47 6.47 0 0 1 6.602-6.472 4.049 4.049 0 0 1 5.636-1.852 8.88 8.88 0 0 1 .337-.363Z"/></svg>
